people/bars.svg

<svg xmlns="http://www.w3.org/2000/svg" viewBox="0 0 16 16"><defs><style>.cls-1{fill:#231f20}</style></defs><title>bars</title><path class="cls-1" d="M1.334.5a.833.833 0 0 0-.834.833v13.334a.833.833 0 0 0 1.667 0V1.333A.834.834 0 0 0 1.334.5zm4.444 2.778a.833.833 0 0 0-.833.833v10.556a.833.833 0 0 0 1.667 0V4.111a.834.834 0 0 0-.834-.833zm8.889-1.667a.834.834 0 0 0-.833.834v12.222a.833.833 0 0 0 1.667 0V2.445a.833.833 0 0 0-.835-.834zm-4.444 5a.833.833 0 0 0-.834.833v7.222a.833.833 0 0 0 1.667 0V7.444a.833.833 0 0 0-.833-.833z" id="Layer_1" data-name="Layer 1"/></svg>

<svg xmlns="http://www.w3.org/2000/svg" viewBox="0 0 16 16"><defs><style>.cls-1{fill:#231f20;}</style></defs><title>bars</title><g id="Layer_1" data-name="Layer 1"><path class="cls-1" d="M1.334.5A.833.833,0,0,0,.5,1.333V14.667a.833.833,0,0,0,1.667,0V1.333A.834.834,0,0,0,1.334.5ZM5.778,3.278a.833.833,0,0,0-.833.833V14.667a.833.833,0,0,0,1.667,0V4.111A.834.834,0,0,0,5.778,3.278Zm8.889-1.667a.834.834,0,0,0-.833.834V14.667a.833.833,0,0,0,1.667,0V2.445A.833.833,0,0,0,14.666,1.611Zm-4.444,5a.833.833,0,0,0-.834.833v7.222a.833.833,0,0,0,1.667,0V7.444A.833.833,0,0,0,10.223,6.611Z"/></g></svg>
